X: 1244
T: Believe Me If All Those Endearing Young Charms
C:Trad
B: australian traditional tunes wiki
M:3/4
L:1/8
R: Waltz
Q: 1/4=100
K:C
V:1 
ED|"C"C3DC2|C2E2"C7"G2|"F"F2A2c2|c2"G7"B3A|"C"G3FE2|"G7"D3CD2|"C"[C4E4]GE-|"G"[G,4D4]ED|!
"C"C3DC2|C2E2"C7"G2|"F"F2A2c2|c4BA|"C"G2c2E2|"G7"D3CD2|"C"C6-|C4GF|!
E2G2c2|c4GG|"F"A2F2c2|c4BA|"C"G3FE2|"G7"D3CD2|"C"[C4E4]GE-|"G"[G,4D4]ED|!
"C"C3DC2|C2E2G2|"F"F2A2c2|c4BA|"C"G2c2E2|"G7"D3CD2|"C"C6-|C4z2||
% abcbook-tune_id 6342d53aadd29d73923f242e


% abcbook-boost 0
% abcbook-tablature 
% abcbook-transpose 
% abcbook-lastupdated 1665324355738
% abcbook-soundfonts 
% abcbook-repeats 1
% NFF Book 2019
% Bush Traditions recording played by Ray Mulligan

